X:1
T:Title
%%score { 1 | 2 }
L:1/8
Q:1/4=100
M:6/8
K:D
V:1 treble nm="Grand Piano"
V:2 bass 
V:1
 [A,DF]2 [DFA] [D=F^G]2 [D^FA] | [DAc]2 [DGB] [DFA]3 | [DGB]2 [DAc] [DBd]2 [DGB] | %3
w: W.~H.~Doane * * *|||
 [DFA]2 [A,DF] [A,CE]3 | [A,DF]2 [DFA] [D=F^G]2 [D^FA] | [DAc]2 [DGB] [DGB]3 | %6
w: |||
 [DA]2 [CGA] [DFA]2 [B,EG] | [DF]2[K:bass] [G,CE] [F,D]3 | [DGB]2 [CG^A] [DGB]3 | %9
w: |||
 [FA]2 [=F^G] [^FA]3 | [GB]2 [Gc] [Fd]2 [B,EG] | [DF]2[K:bass] [G,CE] [F,D]3 |] %12
w: |||
V:2
 D,2 D, B,2 A, | G,2 G, D,3 | G,2 G, G,2 G, | D,2 D, A,,3 | D,2 D, B,2 A, | G,2 G, G,3 | %6
 F,2 E, D,2 G, | A,2 A,, D,3 | G,,2 G,, G,,3 | [D,D]2 [D,D] [D,D]3 | [G,D]2 [E,A,] [D,A,]2 G, | %11
 A,2 A,, D,3 |] %12

